src/assets/svgs/ribbon-icon.svg

<?xml version="1.0" encoding="utf-8"?>
<!-- Generator: Adobe Illustrator 25.4.1, SVG Export Plug-In . SVG Version: 6.00 Build 0)  -->
<svg class="featured-item-icon" version="1.1" id="Layer_1" xmlns="http://www.w3.org/2000/svg" xmlns:xlink="http://www.w3.org/1999/xlink" x="0px" y="0px"
	 viewBox="0 0 107.8 137.1" style="enable-background:new 0 0 107.8 137.1;" xml:space="preserve">
<style type="text/css">
	.st0{fill:#B51318;}
	.st1{fill:#D2161C;}
	.st2{fill:#FFFFFF;}
	.st3{fill:#E9E9E9;}
	.st4{fill:#EC1D22;}
	.st5{fill:#EB1E23;}
</style>
<path class="st0" d="M35.1,101.3c-1.3-0.4-2.7-0.6-4-0.4c-3.9,0.5-7.5-1.8-8.9-5.5c-0.2-0.5-0.4-1-0.7-1.5L21,93L8.8,122.4
	c-0.7,1.7,0.1,3.7,1.8,4.4c0.4,0.2,0.9,0.3,1.3,0.3c0.3,0,0.7,0,1-0.1l12.5-3.8c0.3-0.1,0.6-0.1,0.9-0.1l0.1,0l0.3-0.1l8.9-21.4
	L35.1,101.3z"/>
<path class="st1" d="M52.1,105c-0.9,0.2-1.8,0.5-2.6,0.9c-3.5,1.8-7.7,1-10.3-1.9c-1.1-1.3-2.6-2.2-4.2-2.8l-0.4-0.1l-9,21.8
	l0.7,0.1c0.8,0.1,1.5,0.5,1.9,1.2l6.1,11.5c0.4,0.8,1.1,1.4,2,1.6c0.3,0.1,0.7,0.1,1,0.1c0.5,0,1.1-0.1,1.6-0.4
	c0.7-0.4,1.2-1,1.5-1.7L53,104.9L52.1,105z"/>
<path class="st0" d="M80.3,122.6l-8.7-21l-0.5,0.3c-1,0.5-1.9,1.2-2.6,2.1c-2.6,3-6.8,3.7-10.3,1.9c-0.8-0.4-1.7-0.7-2.6-0.9
	l-0.9-0.2l12.7,30.6c0.3,0.8,1,1.5,1.8,1.8c0.4,0.2,0.9,0.3,1.3,0.3c0.4,0,0.9-0.1,1.3-0.3c0.7-0.3,1.3-0.8,1.7-1.5l6.1-11.5
	c0.1-0.1,0.1-0.2,0.2-0.3l0.4-0.4l1.1-0.9H80.3z"/>
<path class="st1" d="M99,122.4L86.8,93l-0.5,0.9c-0.3,0.6-0.5,1-0.7,1.5c-1.3,3.7-5,6-8.9,5.5h0c-1.9-0.2-3.9,0.2-5.6,1.1l-0.4,0.2
	l9.1,21.9l0.5-0.5c0.6-0.5,1.4-0.6,2.2-0.4l12.5,3.8c0.3,0.1,0.7,0.2,1,0.2c1.4,0,2.8-0.9,3.2-2.4C99.4,124,99.3,123.2,99,122.4z"/>
<path class="st2" d="M67,60l3.7,12.8c1.8-3.2,3.2-6.7,4-10.4c0.8-3.6,1.1-7.2,0.9-10.7l-8,6.2C67,58.5,66.8,59.3,67,60z"/>
<path class="st2" d="M45.6,15.4c0.4-0.1,0.8-0.2,1.2-0.2C46.4,15.2,46,15.3,45.6,15.4z"/>
<path class="st2" d="M47.7,15c0.4-0.1,0.8-0.1,1.2-0.2C48.5,14.9,48.1,14.9,47.7,15z"/>
<path class="st2" d="M50.2,14.6c-0.1,0-0.3,0-0.4,0C50,14.7,50.1,14.7,50.2,14.6C50.2,14.7,50.2,14.7,50.2,14.6z"/>
<path class="st2" d="M46.8,92.3c-0.2,0-0.4-0.1-0.5-0.1C46.4,92.2,46.6,92.2,46.8,92.3z"/>
<path class="st2" d="M50.2,92.8C50.2,92.8,50.2,92.8,50.2,92.8c0,0-0.1,0-0.1,0C50.1,92.7,50.2,92.7,50.2,92.8z"/>
<path class="st2" d="M48.6,92.6c-0.1,0-0.3,0-0.4-0.1C48.3,92.5,48.4,92.5,48.6,92.6z"/>
<path class="st3" d="M62.6,15.5c-2.9-0.7-5.8-1-8.7-1l0,0c-1.2,0-2.4,0.1-3.7,0.2c-0.1,0-0.3,0-0.4,0c-0.3,0-0.6,0.1-0.9,0.1
	c-0.4,0.1-0.8,0.1-1.2,0.2c-0.3,0-0.6,0.1-0.9,0.2c-0.4,0.1-0.8,0.1-1.2,0.2c-0.2,0-0.3,0.1-0.5,0.1c0,0,0,0,0,0
	c14.9,3.4,25.9,14.9,29.3,28.8l0,0c0,0,0,0,0,0l4.9,0.2h0c0.6,0,1.1,0.3,1.5,0.7c0.7,0.8,0.5,2.1-0.3,2.7l-2.5,2c0,0,0,0,0,0
	l-2.4,1.9c0.2,3.5-0.1,7.1-0.9,10.7c-0.8,3.7-2.2,7.2-4,10.4l0.8,2.9c0,0.1,0.1,0.3,0.1,0.4c0,0,0,0,0,0c0,0.4-0.1,0.8-0.3,1.2
	c-0.3,0.4-0.6,0.6-1,0.8c0,0,0,0,0,0c-0.1,0-0.1,0-0.2,0c0,0,0,0,0,0c-0.5,0.1-1,0-1.4-0.3l-0.8-0.5c-5.5,7.2-13.4,12.5-22.6,14.6
	c0,0,0,0,0,0c0.4,0.1,0.7,0.1,1.1,0.2c0.2,0,0.4,0.1,0.5,0.1c0.5,0.1,0.9,0.2,1.4,0.2c0.1,0,0.3,0,0.4,0.1c0.5,0.1,1,0.1,1.5,0.2
	c0,0,0.1,0,0.1,0c19.3,1.8,37.5-10.9,41.9-30.3C97,41.3,83.7,20.3,62.6,15.5z"/>
<path class="st4" d="M61.3,42.6l-5.6-15.3c-0.4-1-1.5-1.5-2.5-1.2c-0.5,0.2-1,0.6-1.2,1.2l-5.6,15.3c-0.3,0.7-1,1.2-1.7,1.3
	l-16.3,0.6c-1.1,0-1.9,0.9-1.9,2c0,0.6,0.3,1.1,0.7,1.5L40.1,58c0.6,0.5,0.9,1.3,0.7,2.1l-4.5,15.7c-0.3,1,0.3,2.1,1.3,2.4
	c0.5,0.2,1.1,0.1,1.6-0.3l13.5-9.1c0.7-0.4,1.5-0.4,2.2,0l0,0l12.8,8.6l0.8,0.5c0.4,0.3,0.9,0.4,1.4,0.3c-0.5,0.1-1,0-1.4-0.3
	l-0.8-0.5c1.1-1.4,2-2.9,2.9-4.5l0.8,2.8c0,0.1,0.1,0.3,0.1,0.4c0,0,0,0,0,0c0-0.1,0-0.3-0.1-0.4l-0.8-2.9L67,60
	c-0.2-0.8,0-1.6,0.7-2.1l8-6.2l2.4-1.9c0,0,0,0,0,0l-2.4,1.9c-0.1-2.5-0.5-5-1.1-7.5l0,0l-11.4-0.4C62.3,43.9,61.6,43.4,61.3,42.6z"
	/>
<path class="st4" d="M70,78.2c0.1,0,0.1,0,0.2,0c0,0,0,0,0,0C70.1,78.1,70,78.1,70,78.2z"/>
<path class="st1" d="M71.5,75.7l-0.8-2.8c-0.9,1.5-1.8,3-2.9,4.5l0.8,0.5c0.4,0.3,1,0.4,1.4,0.3c0,0,0,0,0,0c0.1,0,0.1,0,0.2-0.1
	c0.4-0.1,0.8-0.4,1-0.8c0.2-0.4,0.4-0.8,0.3-1.2C71.5,76,71.5,75.9,71.5,75.7z"/>
<path class="st1" d="M75.6,51.8l2.4-1.9l2.5-2c0.8-0.7,1-1.9,0.3-2.7c-0.4-0.5-0.9-0.7-1.5-0.7h0l-4.9-0.2c0,0,0,0,0,0
	C75.1,46.7,75.5,49.2,75.6,51.8z"/>
<g>
	<path class="st5" d="M105.7,43.4c-1.9-2-2.7-4.8-2.1-7.5c0.9-4.3-1.2-8.6-5.2-10.4c-2.5-1.2-4.3-3.5-4.7-6.3
		c-0.7-4.3-4.2-7.6-8.6-7.9c-2.8-0.2-5.3-1.7-6.7-4.1C76.1,3.4,71.6,1.7,67.4,3c-2.7,0.8-5.5,0.3-7.7-1.4l-0.1-0.1h0
		C56.2-1.2,51.4-1.2,48,1.5C45.9,3.3,43,3.8,40.3,3c-4.2-1.3-8.7,0.4-10.9,4.2c-1.4,2.4-3.9,3.9-6.7,4.1c-4.4,0.3-7.9,3.5-8.6,7.9
		c-0.4,2.7-2.2,5.1-4.7,6.3c-4,1.9-6.1,6.2-5.2,10.4c0.6,2.7-0.2,5.5-2.1,7.5c-3,3.2-3.5,8-1.1,11.6c1.5,2.3,1.8,5.2,0.7,7.8
		c-1.7,4.1-0.4,8.7,3.2,11.2c2.3,1.6,3.6,4.2,3.5,7c-0.1,4.4,2.8,8.2,7,9.3c2.2,0.6,4,2,5.1,3.9c0.3,0.5,0.5,0.9,0.6,1.3
		c1.5,4.1,5.6,6.6,9.9,6.1c1.2-0.1,2.4,0,3.6,0.4c1.5,0.5,2.8,1.3,3.7,2.5c1.8,2.1,4.4,3.2,7.1,3.2c1.5,0,3-0.4,4.4-1.1
		c0.7-0.4,1.5-0.6,2.3-0.8c1.1-0.2,2.1-0.2,3.2,0c0.8,0.2,1.6,0.4,2.3,0.8c3.9,2,8.6,1.2,11.5-2.1c0.6-0.7,1.4-1.4,2.3-1.9
		c1.5-0.8,3.3-1.2,5-1c4.4,0.5,8.4-2,9.9-6.1c0.2-0.4,0.4-0.9,0.6-1.4c1.1-2,3-3.4,5.1-3.9c4.2-1.1,7.1-4.9,7-9.3
		c-0.1-2.8,1.2-5.4,3.5-7c3.6-2.6,4.9-7.2,3.2-11.2c-1.1-2.6-0.8-5.5,0.7-7.8C109.1,51.4,108.7,46.6,105.7,43.4z M46,91.6
		c-0.2,0-0.5-0.1-0.7-0.2v0C29,87.7,16.9,74,15.3,57.3c-1.8-19.3,11-37.1,30-41.4l0.5-0.1c0.4-0.1,0.8-0.2,1.2-0.2
		c0.3-0.1,0.6-0.1,0.9-0.2c0.4-0.1,0.8-0.1,1.2-0.2l0.1,0c0.3,0,0.5-0.1,0.8-0.1l0.3,0l0,0l0.1,0c1.3-0.1,2.5-0.2,3.6-0.2
		c2.9,0,5.8,0.3,8.7,1c10.1,2.3,18.7,8.4,24.2,17.2c5.5,8.8,7.3,19.1,5,29.2c-4,17.7-19.9,30.1-37.7,30.1c-1.2,0-2.4-0.1-3.7-0.2
		l-0.1,0l-0.1,0l0,0c-0.5,0-1-0.1-1.5-0.2L48.2,92c-0.4-0.1-0.9-0.1-1.3-0.2L46,91.6z"/>
</g>
</svg>

<svg width="108" height="138" viewBox="0 0 108 138" fill="none" xmlns="http://www.w3.org/2000/svg">
<g clip-path="url(#clip0)">
<path d="M35.1 101.3C33.8 100.9 32.4 100.7 31.1 100.9C27.2 101.4 23.6 99.1 22.2 95.4C22 94.9 21.8 94.4 21.5 93.9L21 93L8.8 122.4C8.1 124.1 8.9 126.1 10.6 126.8C11 127 11.5 127.1 11.9 127.1C12.2 127.1 12.6 127.1 12.9 127L25.4 123.2C25.7 123.1 26 123.1 26.3 123.1H26.4L26.7 123L35.6 101.6L35.1 101.3Z" fill="#B51318"/>
<path d="M52.1 105C51.2 105.2 50.3 105.5 49.5 105.9C46 107.7 41.8 106.9 39.2 104C38.1 102.7 36.6 101.8 35 101.2L34.6 101.1L25.6 122.9L26.3 123C27.1 123.1 27.8 123.5 28.2 124.2L34.3 135.7C34.7 136.5 35.4 137.1 36.3 137.3C36.6 137.4 37 137.4 37.3 137.4C37.8 137.4 38.4 137.3 38.9 137C39.6 136.6 40.1 136 40.4 135.3L53 104.9L52.1 105Z" fill="#D2161C"/>
<path d="M80.3 122.6L71.6 101.6L71.1 101.9C70.1 102.4 69.2 103.1 68.5 104C65.9 107 61.7 107.7 58.2 105.9C57.4 105.5 56.5 105.2 55.6 105L54.7 104.8L67.4 135.4C67.7 136.2 68.4 136.9 69.2 137.2C69.6 137.4 70.1 137.5 70.5 137.5C70.9 137.5 71.4 137.4 71.8 137.2C72.5 136.9 73.1 136.4 73.5 135.7L79.6 124.2C79.7 124.1 79.7 124 79.8 123.9L80.2 123.5L81.3 122.6H80.3V122.6Z" fill="#B51318"/>
<path d="M99 122.4L86.8 93L86.3 93.9C86 94.5 85.8 94.9 85.6 95.4C84.3 99.1 80.6 101.4 76.7 100.9C74.8 100.7 72.8 101.1 71.1 102L70.7 102.2L79.8 124.1L80.3 123.6C80.9 123.1 81.7 123 82.5 123.2L95 127C95.3 127.1 95.7 127.2 96 127.2C97.4 127.2 98.8 126.3 99.2 124.8C99.4 124 99.3 123.2 99 122.4Z" fill="#D2161C"/>
<path d="M67 60L70.7 72.8C72.5 69.6 73.9 66.1 74.7 62.4C75.5 58.8 75.8 55.2 75.6 51.7L67.6 57.9C67 58.5 66.8 59.3 67 60Z" fill="white"/>
<path d="M45.6 15.4C46 15.3 46.4 15.2 46.8 15.2C46.4 15.2 46 15.3 45.6 15.4Z" fill="white"/>
<path d="M47.7 15C48.1 14.9 48.5 14.9 48.9 14.8C48.5 14.9 48.1 14.9 47.7 15Z" fill="white"/>
<path d="M50.2 14.6C50.1 14.6 49.9 14.6 49.8 14.6C50 14.7 50.1 14.7 50.2 14.6C50.2 14.7 50.2 14.7 50.2 14.6Z" fill="white"/>
<path d="M46.8 92.3C46.6 92.3 46.4 92.2 46.3 92.2C46.4 92.2 46.6 92.2 46.8 92.3Z" fill="white"/>
<path d="M50.2 92.8H50.1C50.1 92.7 50.2 92.7 50.2 92.8Z" fill="white"/>
<path d="M48.6 92.6C48.5 92.6 48.3 92.6 48.2 92.5C48.3 92.5 48.4 92.5 48.6 92.6Z" fill="white"/>
<path d="M62.6 15.5C59.7 14.8 56.8 14.5 53.9 14.5C52.7 14.5 51.5 14.6 50.2 14.7C50.1 14.7 49.9 14.7 49.8 14.7C49.5 14.7 49.2 14.8 48.9 14.8C48.5 14.9 48.1 14.9 47.7 15C47.4 15 47.1 15.1 46.8 15.2C46.4 15.3 46 15.3 45.6 15.4C45.4 15.4 45.3 15.5 45.1 15.5C60 18.9 71 30.4 74.4 44.3L79.3 44.5C79.9 44.5 80.4 44.8 80.8 45.2C81.5 46 81.3 47.3 80.5 47.9L78 49.9L75.6 51.8C75.8 55.3 75.5 58.9 74.7 62.5C73.9 66.2 72.5 69.7 70.7 72.9L71.5 75.8C71.5 75.9 71.6 76.1 71.6 76.2C71.6 76.6 71.5 77 71.3 77.4C71 77.8 70.7 78 70.3 78.2C70.2 78.2 70.2 78.2 70.1 78.2C69.6 78.3 69.1 78.2 68.7 77.9L67.9 77.4C62.4 84.6 54.5 89.9 45.3 92C45.7 92.1 46 92.1 46.4 92.2C46.6 92.2 46.8 92.3 46.9 92.3C47.4 92.4 47.8 92.5 48.3 92.5C48.4 92.5 48.6 92.5 48.7 92.6C49.2 92.7 49.7 92.7 50.2 92.8H50.3C69.6 94.6 87.8 81.9 92.2 62.5C97 41.3 83.7 20.3 62.6 15.5Z" fill="#E9E9E9"/>
<path d="M61.3 42.6L55.7 27.3C55.3 26.3 54.2 25.8 53.2 26.1C52.7 26.3 52.2 26.7 52 27.3L46.4 42.6C46.1 43.3 45.4 43.8 44.7 43.9L28.4 44.5C27.3 44.5 26.5 45.4 26.5 46.5C26.5 47.1 26.8 47.6 27.2 48L40.1 58C40.7 58.5 41 59.3 40.8 60.1L36.3 75.8C36 76.8 36.6 77.9 37.6 78.2C38.1 78.4 38.7 78.3 39.2 77.9L52.7 68.8C53.4 68.4 54.2 68.4 54.9 68.8L67.7 77.4L68.5 77.9C68.9 78.2 69.4 78.3 69.9 78.2C69.4 78.3 68.9 78.2 68.5 77.9L67.7 77.4C68.8 76 69.7 74.5 70.6 72.9L71.4 75.7C71.4 75.8 71.5 76 71.5 76.1C71.5 76 71.5 75.8 71.4 75.7L70.6 72.8L67 60C66.8 59.2 67 58.4 67.7 57.9L75.7 51.7L78.1 49.8L75.7 51.7C75.6 49.2 75.2 46.7 74.6 44.2L63.2 43.8C62.3 43.9 61.6 43.4 61.3 42.6Z" fill="#EC1D22"/>
<path d="M70 78.2C70.1 78.2 70.1 78.2 70.2 78.2C70.1 78.1 70 78.1 70 78.2Z" fill="#EC1D22"/>
<path d="M71.5 75.7L70.7 72.9C69.8 74.4 68.9 75.9 67.8 77.4L68.6 77.9C69 78.2 69.6 78.3 70 78.2C70.1 78.2 70.1 78.2 70.2 78.1C70.6 78 71 77.7 71.2 77.3C71.4 76.9 71.6 76.5 71.5 76.1C71.5 76 71.5 75.9 71.5 75.7Z" fill="#D2161C"/>
<path d="M75.6 51.8L78 49.9001L80.5 47.9001C81.3 47.2001 81.5 46.0001 80.8 45.2001C80.4 44.7001 79.9 44.5 79.3 44.5L74.4 44.3C75.1 46.7 75.5 49.2 75.6 51.8Z" fill="#D2161C"/>
<path d="M105.7 43.4C103.8 41.4 103 38.6 103.6 35.9C104.5 31.6 102.4 27.3 98.4 25.5C95.9 24.3 94.1 22 93.7 19.2C93 14.9 89.5 11.6 85.1 11.3C82.3 11.1 79.8 9.59998 78.4 7.19998C76.1 3.39998 71.6 1.69998 67.4 2.99998C64.7 3.79998 61.9 3.29998 59.7 1.59998L59.6 1.49998C56.2 -1.20002 51.4 -1.20002 48 1.49998C45.9 3.29998 43 3.79998 40.3 2.99998C36.1 1.69998 31.6 3.39998 29.4 7.19998C28 9.59998 25.5 11.1 22.7 11.3C18.3 11.6 14.8 14.8 14.1 19.2C13.7 21.9 11.9 24.3 9.4 25.5C5.4 27.4 3.3 31.7 4.2 35.9C4.8 38.6 4 41.4 2.1 43.4C-0.9 46.6 -1.4 51.4 1 55C2.5 57.3 2.8 60.2 1.7 62.8C0 66.9 1.3 71.5 4.9 74C7.2 75.6 8.5 78.2 8.4 81C8.3 85.4 11.2 89.2 15.4 90.3C17.6 90.9 19.4 92.3 20.5 94.2C20.8 94.7 21 95.1 21.1 95.5C22.6 99.6 26.7 102.1 31 101.6C32.2 101.5 33.4 101.6 34.6 102C36.1 102.5 37.4 103.3 38.3 104.5C40.1 106.6 42.7 107.7 45.4 107.7C46.9 107.7 48.4 107.3 49.8 106.6C50.5 106.2 51.3 106 52.1 105.8C53.2 105.6 54.2 105.6 55.3 105.8C56.1 106 56.9 106.2 57.6 106.6C61.5 108.6 66.2 107.8 69.1 104.5C69.7 103.8 70.5 103.1 71.4 102.6C72.9 101.8 74.7 101.4 76.4 101.6C80.8 102.1 84.8 99.6 86.3 95.5C86.5 95.1 86.7 94.6 86.9 94.1C88 92.1 89.9 90.7 92 90.2C96.2 89.1 99.1 85.3 99 80.9C98.9 78.1 100.2 75.5 102.5 73.9C106.1 71.3 107.4 66.7 105.7 62.7C104.6 60.1 104.9 57.2 106.4 54.9C109.1 51.4 108.7 46.6 105.7 43.4ZM46 91.6C45.8 91.6 45.5 91.5 45.3 91.4C29 87.7 16.9 74 15.3 57.3C13.5 38 26.3 20.2 45.3 15.9L45.8 15.8C46.2 15.7 46.6 15.6 47 15.6C47.3 15.5 47.6 15.5 47.9 15.4C48.3 15.3 48.7 15.3 49.1 15.2H49.2C49.5 15.2 49.7 15.1 50 15.1H50.3H50.4C51.7 15 52.9 14.9 54 14.9C56.9 14.9 59.8 15.2 62.7 15.9C72.8 18.2 81.4 24.3 86.9 33.1C92.4 41.9 94.2 52.2 91.9 62.3C87.9 80 72 92.4 54.2 92.4C53 92.4 51.8 92.3 50.5 92.2H50.4H50.3C49.8 92.2 49.3 92.1 48.8 92H48.2C47.8 91.9 47.3 91.9 46.9 91.8L46 91.6Z" fill="#EB1E23"/>
</g>
<defs>
<clipPath id="clip0">
<rect width="107.8" height="137.1" fill="white"/>
</clipPath>
</defs>
</svg>
